icons/op-mail2-24.svg

<svg width="24" height="24" viewBox="0 0 24 24" fill="none" xmlns="http://www.w3.org/2000/svg">
<path d="M9.5 14.5929L4.6875 11.336L12 5.35968L19.3125 11.336L14.5 14.5929L20 19.4308V10.8933L12 4L4 10.8933V19.4308L9.5 14.5929ZM19.0938 20L13.375 14.9407H10.625L4.90625 20H19.0938Z" fill="black"/>
</svg>

<svg xmlns="http://www.w3.org/2000/svg" width="24" height="24" viewBox="0 0 24 24"><path d="m9.5 14.593-4.812-3.257L12 5.36l7.312 5.976-4.812 3.257 5.5 4.838v-8.538L12 4l-8 6.893v8.538l5.5-4.838ZM19.094 20l-5.719-5.059h-2.75L4.906 20h14.188Z"/></svg>
